X:710
T:Stiffkey
C:Duncan Churchill-Moss
Z:Chords by Dave Holland <dave@biff.org.uk>
M:6/8
L:1/8
S:Colin Hume's website,  colinhume.com  - chords can also be printed below the stave.
Q:3/8=120
K:C
P:A
|: G | "C"c2d edc | "C"e2g "G"d3 | "F"efe "Dm"d2d | "F"c2A "G"G2G |\
"C"c2d edc | "C"e2g "G"d3 | "F"efe "G"d2d | "C"c3-c2 :|
P:B
|: z | "G"d2e fed | "C"e2g "G"d3 | "F"efe "Dm"d2d | "F"c2A "G"d3 |\
"G"d2e fed | "C"e2g "G"d3 |1 "F"efe c2A | "G"d3-d2 :|2 "F"efe "G"d2d | "C"c3-c2 |]

